X: 7636
T: Colbagh Breck
R: jig
M: 6/8
K: Bminor
d2B c2A|F2A A2F|A3 F3|d2B c2A|F2B B2A|B3B2c|
dcB cBA|F2A A2F|A3 F3|dcB cBA|F2B B2A|B5|
F2E D2E|F2A A2F|A3 F3|F2E D2E|F2B B2A|B3B2c|
d2B c2A|F2A A2F|A3 F3|dcB cBA|F2B B2A|B5||

